X: 20779
T: Johnny Loughran's
R: reel
M: 4/4
K: Dmajor
|:dB|AFdF AdAB|AFdF efdB|AFdF ABde|fedf e2:|
|:dB|defg ~a3f|~b3f ~a3f|1 defg ~a3f|
bfaf egfe:|2 ~g3e ~f3e|dgfe dc||

